X: 1485
T: Nihâvent Aranağme (Türkaksağı)
C: ?
O: Turkey
F: http://compmusic.upf.edu/node/140
N: nihavent--aranagme--turkaksagi--1--
N: makam= nihavent
N: form= aranagme
N: usul= turkaksagi = 5/8
M: 5/8
L: 1/16
K: C _B _e  
Q: 1/4=120
%%MIDI tuningsystem comma53
F4 B2d2 f2 | =ef gef6  | f2e2 d4 c2 | BA BGF6  | \
w:  ARANAĞME  |   |   |   | 
F4 B2d2 f2 | 
w:   | 
=ef gef6  | g2f2 e4 d2 | ^cd ecd6  | e3d c4 e2 | \
w:   |   |   |   | 
d2 c2B2 A2G2  | 
w:   | 
ABAB d2c2 BA | BA G^FGA Bcd2  | e3d c4 e2 | 
w:   |   |   | 
d2 c2B2 A2G2  | ABAB d2c2 BA | BA G^FG6  | \
w:   |   |   | 
F4 B2d2 f2 | 
w:  ARANAĞME  | 
=ef gef6  | f2e2 d4 c2 | BA BGF6  | F4 B2d2 f2 | \
w:   |   |   |   | 
=ef gef6  | 
w:   | 
g2f2 e4 d2 | ^cd ecd6  | e3d c4 e2 | d2 c2B2 A2G2  | \
w:   |   |   |   | 
ABAB d2c2 BA | 
w:   | 
BA G^FGA Bcd2  | e3d c4 e2 | d2 c2B2 A2G2  | \
w:   |   |   | 
ABAB d2c2 BA | 
w:   | 
BA G^FG6  | |


